X: 117
T:Four and Twenty
K:C
M:4/4
L:1/8
"C"c2 c2 cG EG|"Dm"A2 A2 AF DF|"G7"B2 B2 BG AB|"C"c2 e2 "G7"G4|!
"C"c2 c2 cG EG|"Dm"A2 A2 AF DF|"G7"B2 B2 BG AB|"C"c4 c2 z2:||!
||:"C"e3 d c3 B|"F"A2 F2 F4|"Dm"d3 c B3 A|"Em"G2 E2 E4|!
"Am"c3 G "C"E3 G|"F"A2 F2 "Dm"F4|"G7"B2 G2 GA BG|c2 C2 C4:||
% <A name="D1X118">
